X:1
T:Marsch
T:Bach
L:1/8
M:4/4
K:G
V:1 treble nm="Violin" snm="Vln."
V:1
 dGGG Gfge | dGGG Gdec | BGBd gd ga/b/ | agfe d2 c2 | BGGg gGGg | gccg gAAg | f2 ed ^c3 d | %7
 dAAF FAAF | D8 :: dAAA dFFF | dDDD DEFG | AGAB cBcd | c<B AB Gdef | gddd gBBB | gGGG GABc | %15
 dcde =fefg | =f<e de cBcd | eccA Affg | dBBG G=ffg | c2 BA A3 G | GDDB, B,DDB, | G,8 :| %22

